!! 00005] TT[TB
!! NN
!!!OTL: Dang hongjun de gege huilaile
!!!ARE: Asia, China, Shanxi, Shanbei
!! Ethnic Group: Han
!! I, 45, 1)
!!!SCT: C0137
!!!YEM: Copyright 1995, estate of Helmut Schaffrath.
**kern
*ICvox
*Ivox
!! Mixed meters:  2/4; 1/4
*M2/4
*k[]
*C:
{8dd
16ee
16dd
8a
16a
16a
=1
8dd
16ee
16dd
8.dd
16gg}
=2
{16.a
32dd
16a
16g
8e
16d
16e
=3
*M1/4
8d
8r}
=4
*M2/4
{8g
8g
16.a
32a
16a
16gg
=5
16dd
16gg
16dd
16cc
16a
16g
16f
16g}
=6
{16cc
16b
16a
16g
16f
16e
16d
16g
=7
2d}
==
!!!AGN: Shange, Xintianyou. Geming lishi minge
!! Saengerin: Huang Bai
!!    Wenige Verzierungen gesungen. VARIANTE. REVOLUTIONAERES VOLKSLIED
!!!ONB: ESAC (Essen Associative Code) Database: CHINA
!!!AMT: irregular
!!!AIN: vox
!!!EED: Helmut Schaffrath
!!!EEV: 1.0
*-
